symbols/web/local_cafe/materialsymbolssharp/local_cafe_wght100fill1_20px.svg

<svg xmlns="http://www.w3.org/2000/svg" height="20" width="20"><path d="M4.417 16.292v-.667h10.645v.667Zm0-3.25V3.708H15q.542 0 .938.396.395.396.395.938v1.25q0 .541-.395.937-.396.396-.938.396h-1.125v5.417Zm9.458-6.084H15q.292 0 .479-.187.188-.188.188-.479v-1.25q0-.292-.188-.48-.187-.187-.479-.187h-1.125Z"/></svg>

<svg xmlns="http://www.w3.org/2000/svg" height="20" width="20"><path d="M4.417 16.292V15.625H15.062V16.292ZM4.417 13.042V3.708H15Q15.542 3.708 15.938 4.104Q16.333 4.5 16.333 5.042V6.292Q16.333 6.833 15.938 7.229Q15.542 7.625 15 7.625H13.875V13.042ZM13.875 6.958H15Q15.292 6.958 15.479 6.771Q15.667 6.583 15.667 6.292V5.042Q15.667 4.75 15.479 4.562Q15.292 4.375 15 4.375H13.875Z"/></svg>
